X:1
T:Kingsbridge, LM
T:Kingsbridge, LM
T:A Compilation of Genuine Church Music, 1832
T:Public Domain Courtesy of the Cyber Hymnal™
C:A Compilation of Genuine Church Music, 1832
Z:Public Domain
Z:Courtesy of the Cyber Hymnal™
%%score ( 1 2 ) ( 3 4 )
L:1/8
Q:1/4=105
M:3/4
K:Bb
V:1 treble 
V:2 treble 
V:3 bass 
V:4 bass 
V:1
 [B,D]2 | (G>A B2) (AG) | (A2 d2) D2 | (G>A B2) (AG) | (F>E D2) D2 | (B>c [Gd]2) [Ge]2 | %6
 (d2 G2) [GA]2 | (B2 A2) [^FA]2 | G4 [Fd]2 | ([Fd]>[Ec] [DB]2) [Fd]2 | (c>B A2) [Ec]2 | %11
 (B>A G2) [EA]2 | (F>E D2 D2) | (B>c [Gd]2) [Ge]2 | (d2 G2) [GA]2 | (B2 A2) [^FA]2 | G4 |] %17
V:2
 x2 | D4 D2 | D4 D2 | D4 E2 | D4 D2 | D2 x4 | G4 x2 | G4 x2 | G4 x2 | x6 | F4 x2 | D4 x2 | D4 D2 | %13
 D2 x4 | G4 x2 | G4 x2 | G4 |] %17
V:3
 G,2 | (B,>C D2) (CB,) | ([F,A,]2 [D,F,]2) [F,A,]2 | (B,>C D2) (CB,) | (A,>G, ^F,2) [D,F,]2 | %5
 (G,>A, B,2) [C,C]2 | [B,,B,]4 [C,C]2 | [D,B,]4 [D,A,]2 | [G,,G,]4 [B,,B,]2 | (B,2 F,2) [B,,B,]2 | %10
 (E>D C2) [^F,A,]2 | (G,>A, B,2) [C,D]2 | (A,>G, ^F,2) [D,F,]2 | (G,>A, B,2) [C,C]2 | %14
 [B,,B,]4 [C,C]2 | [D,B,]4 [D,A,]2 | [G,,G,]4 |] %17
V:4
 G,2 | G,4 G,2 | x6 | G,4 C,2 | D,4 x2 | G,4 x2 | x6 | x6 | x6 | B,,4 x2 | ^F,4 x2 | G,4 x2 | %12
 D,4 x2 | x2 G,4 | x6 | x6 | x4 |] %17

